X: 808
T: Alan MacPherson Of Mosspark
R: jig
M: 6/8
K: Amajor
|:a|fae fce|A<AA ace|dcc ceA|cBB B2 a|
fae fce|A<AA ace|dcc eBe|A3 A2:|
|:e|a2 e f<ga|f2 a fec|dcc ceA|
[1 cBB B2 e|a2 e f<ga|f2 a fec|dcc eBe|A3 A2:|
[2 cBB B2a|fae fce|A<AA ace|dcc eBe|A3 A2||
|:a|A2 c A<AA|ece fec|dcc ceA|cBB B2 a|
A2 c A<AA|ece fec|dcc eBe|A3 A2:|
|:e|a2 a a2 e|aef ceA|dcc ceA|
[1 cBB B2e|a2 a a2 e|aef ceA|dcc eBe|A3 A2:|
[2 cBB B2a|A2 c A<AA|ece fec|dcc eBe|A3 A3||

